apps/mobile/assets/icons/phosphor/tag.svg

<svg
  height="32"
  viewBox="0 0 256 256"
  width="32"
  xmlns="http://www.w3.org/2000/svg"
>
  <path
    d="m243.31 136-99.31-99.31a15.86 15.86 0 0 0 -11.31-4.69h-92.69a8 8 0 0 0 -8 8v92.69a15.86 15.86 0 0 0 4.69 11.31l99.31 99.31a16 16 0 0 0 22.63 0l84.68-84.68a16 16 0 0 0 0-22.63zm-96 96-99.31-99.31v-84.69h84.69l99.31 99.31zm-51.31-148a12 12 0 1 1 -12-12 12 12 0 0 1 12 12z"
  />
</svg>

<svg xmlns="http://www.w3.org/2000/svg" width="32" height="32" fill="#000000" viewBox="0 0 256 256"><path d="M243.31,136,144,36.69A15.86,15.86,0,0,0,132.69,32H40a8,8,0,0,0-8,8v92.69A15.86,15.86,0,0,0,36.69,144L136,243.31a16,16,0,0,0,22.63,0l84.68-84.68a16,16,0,0,0,0-22.63Zm-96,96L48,132.69V48h84.69L232,147.31ZM96,84A12,12,0,1,1,84,72,12,12,0,0,1,96,84Z"></path></svg>
